icon-themes/sifr_svg/cmd/sc_comparedocuments.svg

<svg viewBox="0 0 16 16" xmlns="http://www.w3.org/2000/svg"><path d="m10 1-4 4 4 4v-2h5v-4h-5zm-1 2.5v.5h5v2h-5v.5l-1.5-1.5zm-3 3.5v2h-5v4h5v2l4-4z" fill="#555753"/></svg>

<svg xmlns="http://www.w3.org/2000/svg" viewBox="0 0 16 16">
  <path
     style="fill:#555753"
     d="M 10 1 L 6 5 L 10 9 L 10 7 L 15 7 L 15 3 L 10 3 L 10 1 z M 9 3.5 L 9 4 L 14 4 L 14 6 L 9 6 L 9 6.5 L 7.5 5 L 9 3.5 z M 6 7 L 6 9 L 1 9 L 1 13 L 6 13 L 6 15 L 10 11 L 6 7 z "
     />
</svg>
